symbols/web/wb_iridescent/materialsymbolsrounded/wb_iridescent_wght600grad200_40px.svg

<svg xmlns="http://www.w3.org/2000/svg" height="40" width="40"><path d="M11.708 25.542q-1.625 0-2.812-1.167-1.188-1.167-1.188-2.875v-3q0-1.667 1.188-2.854 1.187-1.188 2.812-1.188h16.584q1.666 0 2.833 1.188 1.167 1.187 1.167 2.854v3q0 1.708-1.167 2.875t-2.833 1.167Zm8.375-18.167q-.791 0-1.333-.542-.542-.541-.542-1.333V3.708q0-.791.542-1.333.542-.542 1.333-.542.75 0 1.292.542t.542 1.333V5.5q0 .792-.542 1.333-.542.542-1.292.542ZM31 10.833q-.542-.541-.542-1.312T31 8.208l.833-.875q.5-.5 1.271-.5.771 0 1.354.5.5.584.5 1.355 0 .77-.5 1.27l-.833.875q-.542.542-1.333.542-.792 0-1.292-.542ZM20.083 38.125q-.791 0-1.333-.563-.542-.562-.542-1.354v-1.833q0-.75.542-1.292.542-.541 1.333-.541.75 0 1.292.541.542.542.542 1.292v1.833q0 .792-.542 1.354-.542.563-1.292.563Zm11.75-5.583L31 31.708q-.542-.541-.542-1.312T31 29.083q.5-.5 1.292-.5.791 0 1.333.5l.833.834q.5.541.5 1.312t-.5 1.313q-.583.5-1.354.5-.771 0-1.271-.5ZM6.417 10.833l-.834-.875q-.541-.5-.541-1.27 0-.771.541-1.355.542-.5 1.313-.5.771 0 1.312.5l.834.875q.5.542.5 1.313 0 .771-.5 1.312-.542.542-1.334.542-.791 0-1.291-.542Zm-.834 21.709q-.541-.542-.541-1.313 0-.771.541-1.312l.834-.834q.5-.5 1.291-.5.792 0 1.334.5.5.542.5 1.313 0 .771-.5 1.312l-.834.834q-.541.5-1.312.5t-1.313-.5ZM11.708 21.5h16.584v-3H11.708v3Zm0 0v-3 3Z"/></svg>

<svg xmlns="http://www.w3.org/2000/svg" height="40" width="40"><path d="M11.708 25.542Q10.083 25.542 8.896 24.375Q7.708 23.208 7.708 21.5V18.5Q7.708 16.833 8.896 15.646Q10.083 14.458 11.708 14.458H28.292Q29.958 14.458 31.125 15.646Q32.292 16.833 32.292 18.5V21.5Q32.292 23.208 31.125 24.375Q29.958 25.542 28.292 25.542ZM20.083 7.375Q19.292 7.375 18.75 6.833Q18.208 6.292 18.208 5.5V3.708Q18.208 2.917 18.75 2.375Q19.292 1.833 20.083 1.833Q20.833 1.833 21.375 2.375Q21.917 2.917 21.917 3.708V5.5Q21.917 6.292 21.375 6.833Q20.833 7.375 20.083 7.375ZM31 10.833Q30.458 10.292 30.458 9.521Q30.458 8.75 31 8.208L31.833 7.333Q32.333 6.833 33.104 6.833Q33.875 6.833 34.458 7.333Q34.958 7.917 34.958 8.688Q34.958 9.458 34.458 9.958L33.625 10.833Q33.083 11.375 32.292 11.375Q31.5 11.375 31 10.833ZM20.083 38.125Q19.292 38.125 18.75 37.562Q18.208 37 18.208 36.208V34.375Q18.208 33.625 18.75 33.083Q19.292 32.542 20.083 32.542Q20.833 32.542 21.375 33.083Q21.917 33.625 21.917 34.375V36.208Q21.917 37 21.375 37.562Q20.833 38.125 20.083 38.125ZM31.833 32.542 31 31.708Q30.458 31.167 30.458 30.396Q30.458 29.625 31 29.083Q31.5 28.583 32.292 28.583Q33.083 28.583 33.625 29.083L34.458 29.917Q34.958 30.458 34.958 31.229Q34.958 32 34.458 32.542Q33.875 33.042 33.104 33.042Q32.333 33.042 31.833 32.542ZM6.417 10.833 5.583 9.958Q5.042 9.458 5.042 8.688Q5.042 7.917 5.583 7.333Q6.125 6.833 6.896 6.833Q7.667 6.833 8.208 7.333L9.042 8.208Q9.542 8.75 9.542 9.521Q9.542 10.292 9.042 10.833Q8.5 11.375 7.708 11.375Q6.917 11.375 6.417 10.833ZM5.583 32.542Q5.042 32 5.042 31.229Q5.042 30.458 5.583 29.917L6.417 29.083Q6.917 28.583 7.708 28.583Q8.5 28.583 9.042 29.083Q9.542 29.625 9.542 30.396Q9.542 31.167 9.042 31.708L8.208 32.542Q7.667 33.042 6.896 33.042Q6.125 33.042 5.583 32.542ZM11.708 21.5H28.292Q28.292 21.5 28.292 21.5Q28.292 21.5 28.292 21.5V18.5Q28.292 18.5 28.292 18.5Q28.292 18.5 28.292 18.5H11.708Q11.708 18.5 11.708 18.5Q11.708 18.5 11.708 18.5V21.5Q11.708 21.5 11.708 21.5Q11.708 21.5 11.708 21.5ZM11.708 21.5Q11.708 21.5 11.708 21.5Q11.708 21.5 11.708 21.5V18.5Q11.708 18.5 11.708 18.5Q11.708 18.5 11.708 18.5Q11.708 18.5 11.708 18.5Q11.708 18.5 11.708 18.5V21.5Q11.708 21.5 11.708 21.5Q11.708 21.5 11.708 21.5Z"/></svg>
